src/topics/icons/riak.svg

<svg height="254" preserveAspectRatio="xMidYMid" viewBox="0 0 256 254" width="256" xmlns="http://www.w3.org/2000/svg"><path d="m137.452332 220.044843c-.019995-3.127831-.524842-43.299473-13.27166-77.867421-13.272484-35.993498-35.7694325-66.1397064-35.7694325-66.1397064s46.5677525 28.3455884 67.9389765 51.9669114c18.415283 20.353 34.493384 52.399935 38.588739 60.875647-4.438953 3.277606-7.318157 8.546483-7.318157 14.487174 0 9.939852 8.058246 17.998099 17.996749 17.998099 9.939853 0 17.998099-8.058247 17.998099-17.998099 0-9.635741-7.57476-17.504039-17.095103-17.974489-2.845243-7.267781-14.882726-35.642826-39.146593-63.012906-28.120174-31.7200634-67.265431-52.8672221-67.265431-52.8672221s42.294317 13.497899 63.665541 22.9464288c18.970795 8.3872653 50.351679 25.8151333 57.161784 29.6243373-.596847 1.790027-.920088 3.70511-.920088 5.695615 0 9.939853 8.058246 17.998099 17.99675 17.998099 9.939852 0 17.998098-8.058246 17.998098-17.998099 0-9.938503-8.058246-17.996749-17.998098-17.996749-3.78628 0-7.299662 1.169564-10.198542 3.167088-6.920049-4.555177-35.235448-22.3891756-77.987284-38.7124547-49.492746-18.8970594-85.9370739-25.4205938-85.9370739-25.4205938l-6.2994696 14.172794s23.9317753 15.8600312 47.5530995 67.1520485c21.669933 47.054713 20.264588 82.465573 19.884504 87.99512-8.187932 1.687913-14.344967 8.938606-14.344967 17.625939 0 9.939854 8.058246 17.9981 17.99675 17.9981 9.939852 0 17.998098-8.058246 17.998098-17.9981 0-6.753693-3.721185-12.63911-9.225289-15.717561z" fill="#3d4c67"/><path d="m63.890281 51.2913425c0-9.4431302-7.6546586-17.0977889-17.0977888-17.0977889-9.4417805 0-17.0964392 7.6546587-17.0964392 17.0977889 0 9.4417805 7.6546587 17.0977889 17.0964392 17.0977889 9.4431302 0 17.0977888-7.6560084 17.0977888-17.0977889" fill="#f6861a" transform="matrix(1 0 0 -1 0 102.582686)"/><g fill="#3d4c67"><path d="m146.677621 18.4462294c0-9.93985294-8.058246-17.99674895-17.998098-17.99674895-9.939854 0-17.99675 8.05689601-17.99675 17.99674895 0 9.9385031 8.056896 17.996749 17.99675 17.996749 9.939852 0 17.998098-8.0582459 17.998098-17.996749" transform="matrix(1 0 0 -1 0 36.892458)"/><path d="m223.615646 52.1909766c0-9.9398529-8.058246-17.9967489-17.998099-17.9967489-9.938503 0-17.996749 8.056896-17.996749 17.9967489 0 9.9385031 8.058246 17.9967489 17.996749 17.9967489 9.939853 0 17.998099-8.0582458 17.998099-17.9967489" transform="matrix(1 0 0 -1 0 104.381954)"/><path d="m68.3898057 204.718588c0-9.939853-8.0582458-17.998098-17.9980987-17.998098-9.9385032 0-17.996749 8.058245-17.996749 17.998098 0 9.938504 8.0582458 17.996749 17.996749 17.996749 9.9398529 0 17.9980987-8.058245 17.9980987-17.996749" transform="matrix(1 0 0 -1 0 409.435826)"/><path d="m35.9948477 127.780562c0-9.939853-8.0582458-17.998099-17.9980987-17.998099-9.9385032 0-17.996749 8.058246-17.996749 17.998099 0 9.938503 8.0582458 17.996749 17.996749 17.996749 9.9398529 0 17.9980987-8.058246 17.9980987-17.996749" transform="matrix(1 0 0 -1 0 255.559774)"/></g></svg>

<?xml version="1.0" encoding="UTF-8" standalone="no"?>
<svg width="256px" height="254px" viewBox="0 0 256 254" version="1.1" xmlns="http://www.w3.org/2000/svg" xmlns:xlink="http://www.w3.org/1999/xlink" preserveAspectRatio="xMidYMid">
	<g>
		<path d="M137.452332,220.044843 C137.432337,216.917012 136.92749,176.74537 124.180672,142.177422 C110.908188,106.183924 88.4112395,76.0377156 88.4112395,76.0377156 C88.4112395,76.0377156 134.978992,104.383304 156.350216,128.004627 C174.765499,148.357627 190.8436,180.404562 194.938955,188.880274 L194.938955,188.880274 C190.500002,192.15788 187.620798,197.426757 187.620798,203.367448 C187.620798,213.3073 195.679044,221.365547 205.617547,221.365547 C215.5574,221.365547 223.615646,213.3073 223.615646,203.367448 C223.615646,193.731707 216.040886,185.863409 206.520543,185.392959 C203.6753,178.125178 191.637817,149.750133 167.37395,122.380053 C139.253776,90.6599896 100.108519,69.5128309 100.108519,69.5128309 C100.108519,69.5128309 142.402836,83.0107299 163.77406,92.4592597 C182.744855,100.846525 214.125739,118.274393 220.935844,122.083597 C220.338997,123.873624 220.015756,125.788707 220.015756,127.779212 C220.015756,137.719065 228.074002,145.777311 238.012506,145.777311 C247.952358,145.777311 256.010604,137.719065 256.010604,127.779212 C256.010604,117.840709 247.952358,109.782463 238.012506,109.782463 C234.226226,109.782463 230.712844,110.952027 227.813964,112.949551 L227.813964,112.949551 C220.893915,108.394374 192.578516,90.5603754 149.82668,74.2370963 C100.333934,55.3400369 63.8896061,48.8165025 63.8896061,48.8165025 L57.5901365,62.9892965 C57.5901365,62.9892965 81.5219118,78.8493277 105.143236,130.141345 C126.813169,177.196058 125.407824,212.606918 125.02774,218.136465 C116.839808,219.824378 110.682773,227.075071 110.682773,235.762404 C110.682773,245.702258 118.741019,253.760504 128.679523,253.760504 C138.619375,253.760504 146.677621,245.702258 146.677621,235.762404 C146.677621,229.008711 142.956436,223.123294 137.452332,220.044843 Z" fill="#3D4C67"></path>
		<path d="M63.890281,51.2913425 C63.890281,41.8482123 56.2356224,34.1935536 46.7924922,34.1935536 C37.3507117,34.1935536 29.696053,41.8482123 29.696053,51.2913425 C29.696053,60.733123 37.3507117,68.3891314 46.7924922,68.3891314 C56.2356224,68.3891314 63.890281,60.733123 63.890281,51.2913425" fill="#F6861A" transform="translate(46.793167, 51.291343) scale(1, -1) translate(-46.793167, -51.291343) "></path>
		<path d="M146.677621,18.4462294 C146.677621,8.50637646 138.619375,0.449480451 128.679523,0.449480451 C118.739669,0.449480451 110.682773,8.50637646 110.682773,18.4462294 C110.682773,28.3847325 118.739669,36.4429784 128.679523,36.4429784 C138.619375,36.4429784 146.677621,28.3847325 146.677621,18.4462294" fill="#3D4C67" transform="translate(128.680197, 18.446229) scale(1, -1) translate(-128.680197, -18.446229) "></path>
		<path d="M223.615646,52.1909766 C223.615646,42.2511237 215.5574,34.1942277 205.617547,34.1942277 C195.679044,34.1942277 187.620798,42.2511237 187.620798,52.1909766 C187.620798,62.1294797 195.679044,70.1877255 205.617547,70.1877255 C215.5574,70.1877255 223.615646,62.1294797 223.615646,52.1909766" fill="#3D4C67" transform="translate(205.618222, 52.190977) scale(1, -1) translate(-205.618222, -52.190977) "></path>
		<path d="M68.3898057,204.718588 C68.3898057,194.778735 60.3315599,186.72049 50.391707,186.72049 C40.4532038,186.72049 32.394958,194.778735 32.394958,204.718588 C32.394958,214.657092 40.4532038,222.715337 50.391707,222.715337 C60.3315599,222.715337 68.3898057,214.657092 68.3898057,204.718588" fill="#3D4C67" transform="translate(50.392382, 204.717913) scale(1, -1) translate(-50.392382, -204.717913) "></path>
		<path d="M35.9948477,127.780562 C35.9948477,117.840709 27.9366019,109.782463 17.996749,109.782463 C8.0582458,109.782463 0,117.840709 0,127.780562 C0,137.719065 8.0582458,145.777311 17.996749,145.777311 C27.9366019,145.777311 35.9948477,137.719065 35.9948477,127.780562" fill="#3D4C67" transform="translate(17.997424, 127.779887) scale(1, -1) translate(-17.997424, -127.779887) "></path>
	</g>
</svg>
